X:264
T:Kitchen Girl
C:arranged by Steve Kaufman
N:Transcribed by Richard A Taylor
R:bluegrass
L:1/8
Q:1/4=235
M:4/4
K:A
z8 |: "A"a2 a2 "G"=g2 gf | "A"ef ed c2 cd | e2 ef =gf e2 | "E7"b2 e2 e2 e=g | 
"A"a2 (3aba "G"=g2 gf | "A"ef ed c2 cd | e2 ef =gf ed | "E7"cB "A"A2 A4 :| 
K:C
|: "Am"A2 AB AG EG | AB AG E2 EG | A^G AB cB cd | "E7"e^d ef e=d cB | "Am"A2 AB AG EG | 
AB AG EG AB | cB Ac "E7"BA GB | "Am"AE CB, A,4 :| z8 | 


